hero/outline/code-bracket-square.svg

<svg width="24" height="24" viewBox="0 0 24 24" fill="none" xmlns="http://www.w3.org/2000/svg">
<path d="M14.25 9.75L16.5 12L14.25 14.25M9.75 14.25L7.5 12L9.75 9.75M6 20.25H18C19.2426 20.25 20.25 19.2426 20.25 18V6C20.25 4.75736 19.2426 3.75 18 3.75H6C4.75736 3.75 3.75 4.75736 3.75 6V18C3.75 19.2426 4.75736 20.25 6 20.25Z" stroke="#0F172A" stroke-width="1.5" stroke-linecap="round" stroke-linejoin="round"/>
</svg>

<svg viewBox="0 0 24 24" xmlns="http://www.w3.org/2000/svg"><path fill="none" stroke="#000" stroke-linecap="round" stroke-linejoin="round" stroke-width="1.5" d="M14.25 9.75L16.5 12l-2.25 2.25m-4.5 0L7.5 12l2.25-2.25M6 20.25h12v0c1.24 0 2.25-1.01 2.25-2.25V6v0c0-1.25-1.01-2.25-2.25-2.25H6v0c-1.25 0-2.25 1-2.25 2.25v12 0c0 1.24 1 2.25 2.25 2.25Z"/></svg>
